;FLAVOR:Marlin
;TIME:5696
;Filament used: 3.54862m
;Layer height: 0.3
;MINX:1.24
;MINY:3.793
;MINZ:0.3
;MAXX:52.492
;MAXY:43.752
;MAXZ:34.2
;Generated with Cura_SteamEngine 4.1.0
M140 S47
M105
M190 S47
M104 S209
M105
M109 S209
M82 ;absolute extrusion mode
G21 ;metric values
G90 ;absolute positioning
M82 ;set extruder to absolute mode
M107 ;start with the fan off
G92 X0 Y0 Z0 E0 ; Take current position as home
G1 Z10.0 F9000 ;move the platform down 15mm
G92 E0 ;zero the extruded length
G1 F200 E3 ;extrude 3mm of feed stock
G92 E0 ;zero the extruded length again
G1 F9000
M117 Printing...
G92 E0
G92 E0
G1 F4200 E-6.5
;LAYER_COUNT:114
;LAYER:0
M106 S216.8
M203 Z1.35
G0 F3960 X5.306 Y7.793 Z0.3
;TYPE:SKIRT
G1 F4200 E0
G1 F720 X5.99 Y7.405 E0.03334
G1 X6.407 Y7.22 E0.05267
G1 X6.459 Y7.197 E0.05508
G1 X8.189 Y6.459 E0.13481
G1 X10.658 Y5.323 E0.25002
G1 X12.737 Y4.295 E0.34834
G1 X12.788 Y4.27 E0.35075
G1 X12.939 Y4.198 E0.35784
G1 X13.466 Y3.992 E0.38183
G1 X14.016 Y3.861 E0.40579
G1 X14.59 Y3.81 E0.43022
G1 X15.497 Y3.794 E0.46868
G1 X15.625 Y3.793 E0.4741
G1 X16.322 Y3.803 E0.50365
G1 X16.548 Y3.813 E0.51324
G1 X17.21 Y3.86 E0.54137
G1 X17.265 Y3.864 E0.54371
G1 X18.788 Y3.993 E0.6085
G1 X21.502 Y4.147 E0.72374
G1 X24.673 Y4.215 E0.85819
G1 X27.412 Y4.263 E0.97432
G1 X30.185 Y4.263 E1.09187
G1 X32.858 Y4.187 E1.20522
G1 X35.611 Y4.032 E1.32211
G1 X36.856 Y3.922 E1.37509
G1 X36.9 Y3.918 E1.37697
G1 X38.141 Y3.822 E1.42973
G1 X38.381 Y3.811 E1.43991
G1 X39.367 Y3.794 E1.48172
G1 X39.494 Y3.793 E1.4871
G1 X40.187 Y3.803 E1.51648
G1 X40.75 Y3.851 E1.54043
G1 X41.301 Y3.979 E1.56441
G1 X41.828 Y4.182 E1.58835
G1 X42.425 Y4.527 E1.61758
G1 X43.127 Y5.019 E1.65392
G1 X43.226 Y5.091 E1.65911
G1 X43.824 Y5.538 E1.69076
G1 X44.333 Y5.991 E1.71964
G1 X45.308 Y7.02 E1.77974
G1 X47.2 Y8.962 E1.89467
G1 X49.161 Y10.864 E2.01048
G1 X49.912 Y11.553 E2.05368
G1 X49.952 Y11.59 E2.05599
G1 X50.565 Y12.168 E2.09171
G1 X50.948 Y12.584 E2.11568
G1 X51.268 Y13.049 E2.1396
G1 X51.598 Y13.762 E2.17291
G1 X51.875 Y14.557 E2.2086
G1 X51.901 Y14.633 E2.212
G1 X52.068 Y15.145 E2.23483
G1 X52.085 Y15.199 E2.23723
G1 X52.306 Y15.911 E2.26883
G1 X52.435 Y16.462 E2.29282
G1 X52.486 Y17.084 E2.31928
G1 X52.492 Y18.908 E2.3966
G1 X52.492 Y18.963 E2.39893
G1 X52.487 Y19.442 E2.41924
G1 X52.47 Y19.769 E2.43312
G1 X52.439 Y20.104 E2.44738
G1 X52.392 Y20.686 E2.47213
G1 X52.387 Y20.744 E2.4746
G1 X52.282 Y21.836 E2.5211
G1 X52.255 Y22.053 E2.53037
G1 X52.136 Y22.837 E2.56399
G1 X52.126 Y22.898 E2.56661
G1 X51.931 Y24.064 E2.61672
G1 X51.888 Y24.363 E2.62953
G1 X51.5 Y27.191 E2.75053
G1 X51.207 Y29.904 E2.86621
G1 X51.181 Y30.224 E2.87982
G1 X51.176 Y30.285 E2.88241
G1 X51.084 Y31.243 E2.92321
G1 X50.99 Y31.801 E2.9472
G1 X50.911 Y32.083 E2.95961
G1 X50.739 Y32.619 E2.98347
G1 X50.713 Y32.696 E2.98692
G1 X50.3 Y33.899 E3.04084
G1 X50.282 Y33.951 E3.04317
G1 X50.058 Y34.575 E3.07127
G1 X49.83 Y35.093 E3.09527
G1 X49.531 Y35.573 E3.11924
G1 X49.167 Y36.006 E3.14322
G1 X48.805 Y36.337 E3.16401
G1 X48.577 Y36.521 E3.17643
G1 X48.424 Y36.638 E3.18459
G1 X47.519 Y37.299 E3.2321
G1 X47.466 Y37.337 E3.23487
G1 X46.885 Y37.747 E3.26501
G1 X46.402 Y38.04 E3.28896
G1 X45.881 Y38.261 E3.31295
G1 X45.335 Y38.407 E3.33691
G1 X44.902 Y38.466 E3.35543
G1 X44.496 Y38.499 E3.3727
G1 X41.759 Y38.751 E3.48921
G1 X39.085 Y39.074 E3.60339
G1 X36.395 Y39.477 E3.7187
G1 X33.694 Y39.96 E3.83501
G1 X31.087 Y40.503 E3.94789
G1 X28.422 Y41.135 E4.064
G1 X25.777 Y41.844 E4.18008
G1 X23.174 Y42.621 E4.29524
G1 X20.592 Y43.471 E4.41047
G1 X20.449 Y43.52 E4.41687
G1 X19.903 Y43.665 E4.44082
G1 X19.226 Y43.735 E4.46967
G1 X18.335 Y43.751 E4.50745
G1 X18.204 Y43.752 E4.513
G1 X17.525 Y43.742 E4.54179
G1 X16.962 Y43.693 E4.56575
G1 X16.411 Y43.566 E4.58972
G1 X15.884 Y43.363 E4.61366
G1 X15.32 Y43.039 E4.64123
G1 X14.57 Y42.524 E4.6798
G1 X14.484 Y42.464 E4.68424
G1 X14.119 Y42.199 E4.70336
G1 X11.897 Y40.631 E4.81865
G1 X9.639 Y39.13 E4.93358
G1 X7.967 Y38.078 E5.01732
G1 X7.156 Y37.58 E5.05767
G1 X6.95 Y37.444 E5.06813
G1 X6.137 Y36.873 E5.11024
G1 X6.084 Y36.835 E5.11301
G1 X5.659 Y36.526 E5.13528
G1 X5.619 Y36.497 E5.13738
G1 X5.06 Y36.08 E5.16694
G1 X4.632 Y35.711 E5.1909
G1 X4.26 Y35.285 E5.21487
G1 X3.952 Y34.811 E5.23883
G1 X3.668 Y34.171 E5.26852
G1 X3.398 Y33.383 E5.30383
G1 X3.378 Y33.322 E5.30655
G1 X3.201 Y32.777 E5.33084
G1 X3.184 Y32.725 E5.33316
G1 X2.973 Y32.044 E5.36338
G1 X2.815 Y31.27 E5.39687
G1 X2.687 Y30.029 E5.44975
G1 X2.681 Y29.969 E5.45231
G1 X2.645 Y29.563 E5.46959
G1 X2.329 Y26.865 E5.58474
G1 X1.938 Y24.179 E5.6998
G1 X1.595 Y22.215 E5.78432
G1 X1.586 Y22.162 E5.7866
G1 X1.489 Y21.559 E5.81249
G1 X1.479 Y21.496 E5.81519
G1 X1.426 Y21.129 E5.83091
G1 X1.419 Y21.08 E5.83301
G1 X1.293 Y20.125 E5.87384
G1 X1.26 Y19.676 E5.89293
G1 X1.246 Y18.919 E5.92502
G1 X1.245 Y18.801 E5.93002
G1 X1.249 Y18.435 E5.94554
G1 X1.24 Y14.827 E6.09849
G1 X1.24 Y14.767 E6.10103
G1 X1.246 Y14.288 E6.12134
G1 X1.293 Y13.725 E6.14529
G1 X1.421 Y13.169 E6.16947
G1 X1.692 Y12.282 E6.20879
G1 X1.713 Y12.214 E6.2118
G1 X1.859 Y11.765 E6.23182
G1 X1.877 Y11.711 E6.23423
G1 X2.112 Y11.022 E6.26509
G1 X2.332 Y10.501 E6.28907
G1 X2.623 Y10.016 E6.31304
G1 X2.98 Y9.578 E6.337
G1 X3.491 Y9.118 E6.36614
G1 X4.176 Y8.602 E6.4025
G1 X4.229 Y8.563 E6.40529
G1 X4.674 Y8.239 E6.42862
G1 X4.722 Y8.205 E6.43111
G1 X5.306 Y7.793 E6.46141
G0 F3960 X5.537 Y8.119
G1 F720 X6.152 Y7.77 E6.49139
G1 X6.569 Y7.585 E6.51072
G1 X6.616 Y7.565 E6.51289
G1 X8.364 Y6.819 E6.59345
G1 X10.837 Y5.681 E6.70885
G1 X12.915 Y4.654 E6.80711
G1 X12.961 Y4.631 E6.80929
G1 X13.112 Y4.559 E6.81638
G1 X13.611 Y4.365 E6.83908
G1 X14.135 Y4.248 E6.86184
G1 X14.598 Y4.21 E6.88153
G1 X15.505 Y4.194 E6.91999
G1 X15.62 Y4.193 E6.92486
G1 X16.317 Y4.203 E6.95441
G1 X16.52 Y4.212 E6.96303
G1 X17.182 Y4.259 E6.99116
G1 X17.231 Y4.263 E6.99324
G1 X18.765 Y4.393 E7.0585
G1 X21.472 Y4.546 E7.17344
G1 X24.664 Y4.615 E7.30878
G1 X27.405 Y4.663 E7.42499
G1 X30.16 Y4.663 E7.54178
G1 X32.929 Y4.585 E7.65921
G1 X35.605 Y4.434 E7.77283
G1 X36.891 Y4.32 E7.82755
G1 X36.931 Y4.317 E7.82925
G1 X38.172 Y4.221 E7.88202
G1 X38.388 Y4.211 E7.89118
G1 X39.374 Y4.194 E7.93299
G1 X39.488 Y4.193 E7.93782
G1 X40.181 Y4.203 E7.9672
G1 X40.715 Y4.251 E7.98993
G1 X41.236 Y4.378 E8.01266
G1 X41.733 Y4.58 E8.0354
G1 X42.195 Y4.855 E8.05819
G1 X42.897 Y5.347 E8.09453
G1 X42.986 Y5.412 E8.09921
G1 X43.584 Y5.859 E8.13085
G1 X44.042 Y6.266 E8.15683
G1 X45.014 Y7.292 E8.21674
G1 X46.918 Y9.246 E8.33239
G1 X48.858 Y11.128 E8.44697
G1 X49.642 Y11.847 E8.49206
G1 X49.678 Y11.881 E8.49416
G1 X50.291 Y12.459 E8.52988
G1 X50.652 Y12.855 E8.55259
G1 X50.951 Y13.3 E8.57532
G1 X51.221 Y13.894 E8.60298
G1 X51.498 Y14.689 E8.63867
G1 X51.521 Y14.757 E8.64171
G1 X51.688 Y15.269 E8.66454
G1 X51.703 Y15.318 E8.66671
G1 X51.924 Y16.03 E8.69831
G1 X52.045 Y16.552 E8.72103
G1 X52.086 Y17.085 E8.74369
G1 X52.092 Y18.909 E8.82101
G1 X52.092 Y18.959 E8.82313
G1 X52.087 Y19.438 E8.84344
G1 X52.072 Y19.732 E8.85592
G1 X52.041 Y20.067 E8.87018
G1 X51.993 Y20.653 E8.8951
G1 X51.988 Y20.706 E8.89736
G1 X51.883 Y21.798 E8.94386
G1 X51.859 Y21.993 E8.95219
G1 X51.74 Y22.777 E8.98581
G1 X51.732 Y22.832 E8.98816
G1 X51.532 Y24.027 E9.03953
G1 X51.492 Y24.306 E9.05147
G1 X51.101 Y27.16 E9.17359
G1 X50.808 Y29.865 E9.28892
G1 X50.782 Y30.192 E9.30283
G1 X50.778 Y30.247 E9.30517
G1 X50.686 Y31.205 E9.34597
G1 X50.53 Y31.961 E9.37869
G1 X50.358 Y32.497 E9.40255
G1 X50.335 Y32.566 E9.40563
G1 X49.922 Y33.769 E9.45955
G1 X49.905 Y33.816 E9.46167
G1 X49.681 Y34.44 E9.48977
G1 X49.463 Y34.93 E9.51251
G1 X49.174 Y35.382 E9.53525
G1 X48.822 Y35.786 E9.55797
G1 X48.554 Y36.026 E9.57322
G1 X48.326 Y36.21 E9.58564
G1 X48.188 Y36.315 E9.59299
G1 X47.283 Y36.976 E9.64049
G1 X47.236 Y37.01 E9.64295
G1 X46.655 Y37.42 E9.6731
G1 X46.195 Y37.696 E9.69584
G1 X45.699 Y37.9 E9.71857
G1 X45.178 Y38.029 E9.74133
G1 X44.869 Y38.067 E9.75452
G1 X44.49 Y38.098 E9.77064
G1 X41.711 Y38.355 E9.88895
G1 X39.014 Y38.68 E10.0041
G1 X36.337 Y39.081 E10.11885
G1 X33.642 Y39.563 E10.23491
G1 X30.992 Y40.114 E10.34965
G1 X28.29 Y40.756 E10.46737
G1 X25.697 Y41.451 E10.58117
G1 X23.049 Y42.241 E10.69831
G1 X20.507 Y43.078 E10.81176
G1 X20.32 Y43.142 E10.82014
G1 X19.801 Y43.277 E10.84287
G1 X19.219 Y43.335 E10.86767
G1 X18.328 Y43.351 E10.90544
G1 X18.21 Y43.352 E10.91045
G1 X17.531 Y43.342 E10.93923
G1 X16.997 Y43.294 E10.96196
G1 X16.476 Y43.167 E10.98469
G1 X15.979 Y42.965 E11.00743
G1 X15.546 Y42.71 E11.02874
G1 X14.796 Y42.195 E11.0673
G1 X14.719 Y42.14 E11.07131
G1 X14.393 Y41.903 E11.0884
G1 X12.127 Y40.304 E11.20597
G1 X9.861 Y38.798 E11.3213
G1 X8.142 Y37.716 E11.40741
G1 X7.365 Y37.239 E11.44606
G1 X7.18 Y37.117 E11.45545
G1 X6.367 Y36.546 E11.49756
G1 X6.319 Y36.512 E11.50006
G1 X5.894 Y36.203 E11.52233
G1 X5.858 Y36.177 E11.52421
G1 X5.299 Y35.76 E11.55378
G1 X4.895 Y35.408 E11.57649
G1 X4.547 Y35 E11.59922
G1 X4.263 Y34.545 E11.62196
G1 X4.046 Y34.041 E11.64522
G1 X3.776 Y33.253 E11.68053
G1 X3.758 Y33.198 E11.68299
G1 X3.581 Y32.653 E11.70728
G1 X3.566 Y32.606 E11.70937
G1 X3.355 Y31.925 E11.73959
G1 X3.213 Y31.229 E11.7697
G1 X3.085 Y29.988 E11.82259
G1 X3.08 Y29.934 E11.82489
G1 X3.047 Y29.552 E11.84114
G1 X2.723 Y26.793 E11.9589
G1 X2.334 Y24.124 E12.07324
G1 X1.989 Y22.146 E12.15835
G1 X1.981 Y22.099 E12.16037
G1 X1.884 Y21.496 E12.18626
G1 X1.875 Y21.439 E12.18871
G1 X1.822 Y21.072 E12.20443
G1 X1.816 Y21.028 E12.20631
G1 X1.69 Y20.073 E12.24715
G1 X1.66 Y19.669 E12.26432
G1 X1.646 Y18.912 E12.29641
G1 X1.645 Y18.806 E12.30091
G1 X1.649 Y18.44 E12.31642
G1 X1.64 Y14.826 E12.46962
G1 X1.64 Y14.772 E12.47191
G1 X1.646 Y14.293 E12.49222
G1 X1.693 Y13.759 E12.51494
G1 X1.803 Y13.286 E12.53553
G1 X2.074 Y12.399 E12.57485
G1 X2.093 Y12.338 E12.57756
G1 X2.239 Y11.889 E12.59757
G1 X2.256 Y11.84 E12.59977
G1 X2.491 Y11.151 E12.63063
G1 X2.701 Y10.658 E12.65334
G1 X2.983 Y10.201 E12.67611
G1 X3.329 Y9.791 E12.69885
G1 X3.732 Y9.438 E12.72156
G1 X4.417 Y8.922 E12.75791
G1 X4.464 Y8.887 E12.7604
G1 X4.909 Y8.563 E12.78373
G1 X4.953 Y8.531 E12.78604
G1 X5.537 Y8.119 E12.81634
G0 F3960 X5.767 Y8.446
G1 F720 X6.314 Y8.136 E12.84299
G1 X6.731 Y7.951 E12.86233
G1 X6.773 Y7.933 E12.86426
G1 X8.509 Y7.192 E12.94428
G1 X11.003 Y6.045 E13.06065
G1 X13.092 Y5.012 E13.15944
G1 X13.133 Y4.993 E13.16135
G1 X13.284 Y4.921 E13.16844
G1 X13.756 Y4.74 E13.18987
G1 X14.251 Y4.635 E13.21132
G1 X14.605 Y4.609 E13.22637
G1 X15.512 Y4.593 E13.26482
G1 X15.614 Y4.593 E13.26915
G1 X16.311 Y4.603 E13.2987
G1 X16.492 Y4.611 E13.30638
G1 X17.154 Y4.658 E13.33451
G1 X17.197 Y4.661 E13.33634
G1 X18.745 Y4.792 E13.40219
G1 X21.469 Y4.946 E13.51785
G1 X24.643 Y5.015 E13.65243
G1 X24.643 Y5.014 E13.65247
G1 X27.455 Y5.063 E13.77169
G1 X30.171 Y5.063 E13.88683
G1 X32.926 Y4.985 E14.00366
G1 X35.663 Y4.831 E14.11987
G1 X36.926 Y4.719 E14.17362
G1 X36.962 Y4.716 E14.17515
G1 X38.203 Y4.62 E14.22791
G1 X38.395 Y4.61 E14.23606
G1 X39.381 Y4.593 E14.27787
G1 X39.482 Y4.593 E14.28215
G1 X40.175 Y4.603 E14.31153
G1 X40.679 Y4.651 E14.33299
G1 X41.168 Y4.776 E14.35439
G1 X41.632 Y4.978 E14.37584
G1 X41.966 Y5.183 E14.39245
G1 X42.668 Y5.675 E14.42879
G1 X42.747 Y5.732 E14.43292
G1 X43.345 Y6.179 E14.46457
G1 X43.752 Y6.541 E14.48766
G1 X44.721 Y7.563 E14.54736
G1 X46.636 Y9.529 E14.6637
G1 X48.61 Y11.444 E14.78029
G1 X49.371 Y12.142 E14.82406
G1 X49.403 Y12.172 E14.82592
G1 X50.016 Y12.75 E14.86164
G1 X50.356 Y13.125 E14.8831
G1 X50.632 Y13.548 E14.90451
G1 X50.843 Y14.025 E14.92662
G1 X51.12 Y14.82 E14.96231
G1 X51.14 Y14.881 E14.96503
G1 X51.307 Y15.393 E14.98786
G1 X51.321 Y15.436 E14.98977
G1 X51.542 Y16.148 E15.02138
G1 X51.653 Y16.642 E15.04284
G1 X51.686 Y17.086 E15.06171
G1 X51.692 Y18.91 E15.13903
G1 X51.692 Y18.954 E15.1409
G1 X51.687 Y19.433 E15.16121
G1 X51.673 Y19.695 E15.17233
G1 X51.642 Y20.03 E15.18659
G1 X51.594 Y20.621 E15.21172
G1 X51.59 Y20.667 E15.21368
G1 X51.485 Y21.759 E15.26019
G1 X51.464 Y21.933 E15.26762
G1 X51.345 Y22.717 E15.30123
G1 X51.337 Y22.766 E15.30334
G1 X51.14 Y23.944 E15.35397
G1 X51.096 Y24.25 E15.36707
G1 X50.704 Y27.1 E15.48902
G1 X50.415 Y29.775 E15.60308
G1 X50.384 Y30.16 E15.61945
G1 X50.379 Y30.209 E15.62154
G1 X50.287 Y31.167 E15.66234
G1 X50.149 Y31.839 E15.69142
G1 X49.977 Y32.375 E15.71528
G1 X49.957 Y32.436 E15.718
G1 X49.544 Y33.639 E15.77192
G1 X49.529 Y33.681 E15.77381
G1 X49.305 Y34.305 E15.80191
G1 X49.097 Y34.766 E15.82335
G1 X48.819 Y35.188 E15.84477
G1 X48.303 Y35.714 E15.87601
G1 X48.075 Y35.898 E15.88843
G1 X47.952 Y35.992 E15.89499
G1 X47.047 Y36.653 E15.9425
G1 X47.005 Y36.684 E15.94471
G1 X46.424 Y37.094 E15.97486
G1 X45.989 Y37.352 E15.9963
G1 X45.519 Y37.538 E16.01772
G1 X44.837 Y37.669 E16.04716
G1 X44.417 Y37.703 E16.06502
G1 X44.417 Y37.702 E16.06507
G1 X41.702 Y37.953 E16.18065
G1 X38.969 Y38.283 E16.29734
G1 X36.244 Y38.691 E16.41415
G1 X33.568 Y39.17 E16.52939
G1 X30.882 Y39.728 E16.64568
G1 X28.232 Y40.358 E16.76115
G1 X25.561 Y41.074 E16.87837
G1 X22.98 Y41.844 E16.99255
G1 X20.342 Y42.712 E17.11027
G1 X20.19 Y42.764 E17.11708
G1 X19.7 Y42.889 E17.13852
G1 X19.211 Y42.935 E17.15934
G1 X18.32 Y42.951 E17.19712
G1 X18.216 Y42.952 E17.20152
G1 X17.537 Y42.942 E17.23031
G1 X17.034 Y42.894 E17.25173
G1 X16.544 Y42.768 E17.27318
G1 X16.08 Y42.567 E17.29461
G1 X15.773 Y42.38 E17.30985
G1 X15.023 Y41.865 E17.34842
G1 X14.954 Y41.816 E17.35201
G1 X14.589 Y41.551 E17.37113
G1 X12.357 Y39.976 E17.48693
G1 X10.074 Y38.459 E17.60312
G1 X8.355 Y37.377 E17.68923
G1 X7.575 Y36.898 E17.72803
G1 X7.41 Y36.79 E17.73639
G1 X6.597 Y36.219 E17.7785
G1 X6.554 Y36.188 E17.78075
G1 X6.129 Y35.879 E17.80302
G1 X6.098 Y35.856 E17.80466
G1 X5.539 Y35.439 E17.83422
G1 X5.159 Y35.106 E17.85564
G1 X4.836 Y34.717 E17.87708
G1 X4.578 Y34.281 E17.89855
G1 X4.425 Y33.911 E17.91552
G1 X4.155 Y33.123 E17.95084
G1 X4.138 Y33.074 E17.95303
G1 X3.961 Y32.529 E17.97732
G1 X3.948 Y32.488 E17.97915
G1 X3.737 Y31.807 E18.00937
G1 X3.611 Y31.188 E18.03615
G1 X3.483 Y29.947 E18.08903
G1 X3.478 Y29.899 E18.09108
G1 X3.44 Y29.469 E18.10938
G1 X3.127 Y26.795 E18.22351
G1 X2.726 Y24.04 E18.34152
G1 X2.383 Y22.078 E18.42596
G1 X2.376 Y22.035 E18.4278
G1 X2.279 Y21.432 E18.45369
G1 X2.271 Y21.381 E18.45588
G1 X2.218 Y21.014 E18.4716
G1 X2.212 Y20.976 E18.47323
G1 X2.086 Y20.021 E18.51407
G1 X2.06 Y19.661 E18.52937
G1 X2.046 Y18.904 E18.56146
G1 X2.045 Y18.81 E18.56545
G1 X2.049 Y18.444 E18.58096
G1 X2.04 Y14.825 E18.73437
G1 X2.04 Y14.777 E18.73641
G1 X2.046 Y14.298 E18.75672
G1 X2.092 Y13.794 E18.77817
G1 X2.186 Y13.403 E18.79522
G1 X2.457 Y12.516 E18.83453
G1 X2.474 Y12.461 E18.83697
G1 X2.62 Y12.012 E18.85699
G1 X2.634 Y11.969 E18.85891
G1 X2.869 Y11.28 E18.88976
G1 X3.07 Y10.816 E18.9112
G1 X3.341 Y10.389 E18.93264
G1 X3.676 Y10.01 E18.95408
G1 X3.973 Y9.757 E18.97062
G1 X4.658 Y9.241 E19.00698
G1 X4.699 Y9.21 E19.00915
G1 X5.144 Y8.886 E19.03249
G1 X5.183 Y8.858 E19.03452
G1 X5.767 Y8.446 E19.06482
G0 F3960 X7.673 Y11.252
;TYPE:SUPPORT
G1 F720 X9.661 Y11.252 E19.14909
G1 X11.273 Y12.425 E19.2336
G1 X11.888 Y14.315 E19.31786
G1 X11.582 Y15.255 E19.35976
G1 X11.891 Y16.205 E19.40211
G1 X11.566 Y17.204 E19.44664
G1 X11.894 Y18.212 E19.49158
G1 X11.672 Y18.894 E19.52198
G1 X11.903 Y19.606 E19.55371
G1 X11.801 Y20.077 E19.57414
G1 X13.027 Y23.86 E19.74272
G1 X12.916 Y24.202 E19.75796
G1 X13.294 Y25.364 E19.80976
G1 X13.144 Y25.826 E19.83035
G1 X13.382 Y26.558 E19.86298
G1 X13.214 Y27.074 E19.88598
G1 X13.39 Y27.614 E19.91006
G1 X13.142 Y28.378 E19.94411
