;FLAVOR:Marlin
;TIME:691
;Filament used: 0.32275m
;Layer height: 0.3
;MINX:0.802
;MINY:1.047
;MINZ:0.3
;MAXX:24.794
;MAXY:25.772
;MAXZ:6.85
;Generated with Cura_SteamEngine 4.1.0
M140 S47
M105
M190 S47
M104 S209
M105
M109 S209
M82 ;absolute extrusion mode
G21 ;metric values
G90 ;absolute positioning
M82 ;set extruder to absolute mode
M107 ;start with the fan off
G92 X0 Y0 Z0 E0 ; Take current position as home
G1 Z10.0 F9000 ;move the platform down 15mm
G92 E0 ;zero the extruded length
G1 F200 E3 ;extrude 3mm of feed stock
G92 E0 ;zero the extruded length again
G1 F9000
M117 Printing...
G92 E0
G92 E0
G1 F4200 E-6.5
;LAYER_COUNT:31
;LAYER:0
M106 S216.8
M203 Z1.35
G0 F3960 X2.222 Y2.228 Z0.3
;TYPE:SKIRT
G1 F4200 E0
G1 F720 X2.684 Y1.855 E0.02517
G1 X3.191 Y1.548 E0.0503
G1 X3.735 Y1.311 E0.07545
G1 X4.305 Y1.15 E0.10056
G1 X5.088 Y1.058 E0.13398
G1 X5.408 Y1.049 E0.14755
G1 X5.532 Y1.047 E0.15281
G1 X8.768 Y1.047 E0.28998
G1 X10.722 Y1.075 E0.37282
G1 X13.85 Y1.069 E0.50542
G1 X14.381 Y1.06 E0.52793
G1 X14.731 Y1.068 E0.54278
G1 X15.928 Y1.143 E0.59362
G1 X16.026 Y1.15 E0.59778
G1 X16.768 Y1.213 E0.62935
G1 X19.511 Y1.369 E0.74581
G1 X20.562 Y1.413 E0.79041
G1 X21.151 Y1.478 E0.81553
G1 X21.726 Y1.621 E0.84064
G1 X22.277 Y1.841 E0.86579
G1 X22.793 Y2.133 E0.89093
G1 X23.266 Y2.491 E0.91607
G1 X23.686 Y2.91 E0.94122
G1 X24.045 Y3.381 E0.96633
G1 X24.339 Y3.896 E0.99147
G1 X24.56 Y4.447 E1.01663
G1 X24.705 Y5.021 E1.04173
G1 X24.769 Y5.563 E1.06486
G1 X24.787 Y5.884 E1.07849
G1 X24.794 Y6.13 E1.08893
G1 X24.794 Y19.375 E1.65039
G1 X24.784 Y20.102 E1.68121
G1 X24.735 Y20.693 E1.70635
G1 X24.608 Y21.272 E1.73148
G1 X24.405 Y21.829 E1.75661
G1 X24.128 Y22.353 E1.78174
G1 X23.783 Y22.835 E1.80686
G1 X23.376 Y23.267 E1.83202
G1 X22.915 Y23.64 E1.85716
G1 X22.408 Y23.948 E1.88231
G1 X21.865 Y24.184 E1.90741
G1 X21.133 Y24.377 E1.9395
G1 X20.125 Y24.551 E1.98286
G1 X17.44 Y25.053 E2.09865
G1 X15.597 Y25.445 E2.17852
G1 X14.641 Y25.657 E2.22003
G1 X13.768 Y25.76 E2.2573
G1 X13.16 Y25.771 E2.28308
G1 X13.019 Y25.772 E2.28905
G1 X12.659 Y25.767 E2.30432
G1 X12.068 Y25.718 E2.32945
G1 X11.682 Y25.643 E2.34612
G1 X10.784 Y25.425 E2.3853
G1 X10.712 Y25.407 E2.38844
G1 X9.858 Y25.184 E2.42586
G1 X7.249 Y24.582 E2.53936
G1 X4.453 Y24.019 E2.66027
G1 X4.453 Y24.02 E2.66031
G1 X4.348 Y23.999 E2.66485
G1 X3.776 Y23.843 E2.68998
G1 X3.23 Y23.613 E2.7151
G1 X2.719 Y23.311 E2.74026
G1 X2.254 Y22.943 E2.7654
G1 X1.843 Y22.515 E2.79055
G1 X1.493 Y22.037 E2.81566
G1 X1.21 Y21.516 E2.8408
G1 X1 Y20.961 E2.86595
G1 X0.867 Y20.383 E2.89109
G1 X0.813 Y19.803 E2.91579
G1 X0.804 Y19.471 E2.92987
G1 X0.802 Y19.352 E2.93491
G1 X0.802 Y6.078 E3.49761
G1 X0.812 Y5.392 E3.52669
G1 X0.861 Y4.801 E3.55183
G1 X0.989 Y4.222 E3.57697
G1 X1.193 Y3.665 E3.60211
G1 X1.47 Y3.141 E3.62724
G1 X1.815 Y2.659 E3.65236
G1 X2.222 Y2.228 E3.67749
G0 F3960 X2.612 Y2.416
G1 F720 X3.067 Y2.08 E3.70147
G1 X3.564 Y1.811 E3.72543
G1 X4.094 Y1.615 E3.74938
G1 X4.647 Y1.496 E3.77336
G1 X5.1 Y1.458 E3.79263
G1 X5.42 Y1.449 E3.8062
G1 X5.532 Y1.447 E3.81095
G1 X8.762 Y1.447 E3.94787
G1 X10.717 Y1.475 E4.03075
G1 X13.858 Y1.469 E4.1639
G1 X14.388 Y1.46 E4.18637
G1 X14.706 Y1.467 E4.19986
G1 X15.903 Y1.542 E4.2507
G1 X15.992 Y1.548 E4.25448
G1 X16.746 Y1.612 E4.28656
G1 X19.513 Y1.769 E4.40404
G1 X20.545 Y1.813 E4.44783
G1 X21.106 Y1.876 E4.47176
G1 X21.654 Y2.018 E4.49576
G1 X22.175 Y2.236 E4.5197
G1 X22.661 Y2.526 E4.54369
G1 X23.101 Y2.881 E4.56766
G1 X23.487 Y3.294 E4.59162
G1 X23.81 Y3.758 E4.61559
G1 X24.065 Y4.262 E4.63953
G1 X24.246 Y4.798 E4.66351
G1 X24.37 Y5.585 E4.69728
G1 X24.388 Y5.906 E4.71091
G1 X24.394 Y6.13 E4.72041
G1 X24.394 Y19.369 E5.28162
G1 X24.384 Y20.096 E5.31245
G1 X24.336 Y20.659 E5.3364
G1 X24.209 Y21.21 E5.36037
G1 X24.006 Y21.738 E5.38435
G1 X23.731 Y22.232 E5.40831
G1 X23.389 Y22.682 E5.43227
G1 X22.986 Y23.079 E5.45626
G1 X22.532 Y23.415 E5.4802
G1 X22.035 Y23.684 E5.50415
G1 X21.505 Y23.881 E5.52812
G1 X21.065 Y23.983 E5.54727
G1 X20.048 Y24.159 E5.59102
G1 X17.37 Y24.66 E5.70651
G1 X15.475 Y25.062 E5.78863
G1 X14.554 Y25.266 E5.82862
G1 X13.76 Y25.36 E5.86251
G1 X13.152 Y25.371 E5.88829
G1 X13.024 Y25.372 E5.89372
G1 X12.664 Y25.367 E5.90898
G1 X12.101 Y25.319 E5.93293
G1 X11.776 Y25.254 E5.94698
G1 X10.878 Y25.036 E5.98616
G1 X10.813 Y25.02 E5.98899
G1 X9.977 Y24.802 E6.02562
G1 X7.313 Y24.187 E6.14152
G1 X4.526 Y23.626 E6.26203
G1 X4.427 Y23.606 E6.26631
G1 X3.881 Y23.457 E6.2903
G1 X3.363 Y23.231 E6.31426
G1 X2.881 Y22.935 E6.33824
G1 X2.446 Y22.575 E6.36217
G1 X2.066 Y22.156 E6.38615
G1 X1.749 Y21.688 E6.41011
G1 X1.501 Y21.18 E6.43408
G1 X1.327 Y20.642 E6.45805
G1 X1.231 Y20.085 E6.48201
G1 X1.212 Y19.792 E6.49445
G1 X1.203 Y19.46 E6.50853
G1 X1.202 Y19.352 E6.51311
G1 X1.202 Y6.084 E7.07555
G1 X1.212 Y5.398 E7.10464
G1 X1.261 Y4.834 E7.12863
G1 X1.388 Y4.284 E7.15256
G1 X1.591 Y3.756 E7.17654
G1 X1.867 Y3.263 E7.20049
G1 X2.21 Y2.813 E7.22448
G1 X2.612 Y2.416 E7.24843
G0 F3960 X2.603 Y2.976
G1 F720 X3 Y2.616 E7.27115
G1 X3.447 Y2.318 E7.29392
G1 X3.932 Y2.091 E7.31662
G1 X4.447 Y1.938 E7.3394
G1 X5.111 Y1.857 E7.36775
G1 X5.431 Y1.848 E7.38132
G1 X5.532 Y1.847 E7.3856
G1 X8.756 Y1.847 E7.52227
G1 X10.711 Y1.875 E7.60515
G1 X13.86 Y1.869 E7.73864
G1 X14.395 Y1.86 E7.76133
G1 X14.681 Y1.866 E7.77345
G1 X15.878 Y1.941 E7.82429
G1 X15.958 Y1.947 E7.82769
G1 X16.725 Y2.012 E7.86032
G1 X19.438 Y2.166 E7.97552
G1 X20.528 Y2.212 E8.02176
G1 X21.06 Y2.275 E8.04447
G1 X21.578 Y2.416 E8.06723
G1 X22.069 Y2.632 E8.08997
G1 X22.522 Y2.918 E8.11268
G1 X22.927 Y3.269 E8.1354
G1 X23.276 Y3.677 E8.15816
G1 X23.561 Y4.131 E8.18088
G1 X23.775 Y4.623 E8.20362
G1 X23.913 Y5.141 E8.22635
G1 X23.97 Y5.607 E8.24625
G1 X23.988 Y5.928 E8.25988
G1 X23.994 Y6.13 E8.26845
G1 X23.994 Y19.364 E8.82945
G1 X23.984 Y20.091 E8.86027
G1 X23.936 Y20.625 E8.883
G1 X23.81 Y21.146 E8.90572
G1 X23.608 Y21.643 E8.92846
G1 X23.334 Y22.104 E8.95119
G1 X22.995 Y22.519 E8.97391
G1 X22.598 Y22.88 E8.99666
G1 X22.152 Y23.177 E9.01937
G1 X21.666 Y23.405 E9.04213
G1 X20.997 Y23.588 E9.07153
G1 X20.022 Y23.757 E9.11348
G1 X17.292 Y24.268 E9.23121
G1 X15.392 Y24.671 E9.31355
G1 X14.467 Y24.876 E9.35371
G1 X13.753 Y24.96 E9.38419
G1 X13.145 Y24.971 E9.40996
G1 X13.03 Y24.972 E9.41484
G1 X12.67 Y24.967 E9.4301
G1 X12.136 Y24.919 E9.45283
G1 X11.871 Y24.865 E9.46429
G1 X10.973 Y24.647 E9.50347
G1 X10.914 Y24.633 E9.50604
G1 X10.063 Y24.411 E9.54332
G1 X7.41 Y23.799 E9.65873
G1 X4.605 Y23.234 E9.78003
G1 X4.505 Y23.214 E9.78435
G1 X3.988 Y23.07 E9.8071
G1 X3.499 Y22.851 E9.82982
G1 X3.048 Y22.561 E9.85254
G1 X2.644 Y22.208 E9.87529
G1 X2.298 Y21.799 E9.898
G1 X2.016 Y21.342 E9.92076
G1 X1.805 Y20.849 E9.94349
G1 X1.67 Y20.33 E9.96623
G1 X1.612 Y19.782 E9.98959
G1 X1.603 Y19.45 E10.00366
G1 X1.602 Y19.352 E10.00782
G1 X1.602 Y6.09 E10.57001
G1 X1.612 Y5.404 E10.59909
G1 X1.66 Y4.869 E10.62186
G1 X1.787 Y4.348 E10.64459
G1 X1.989 Y3.852 E10.6673
G1 X2.263 Y3.391 E10.69003
G1 X2.603 Y2.976 E10.71277
G0 F3960 X2.995 Y3.149
G1 F720 X3.386 Y2.828 E10.73422
G1 X3.823 Y2.573 E10.75566
G1 X4.294 Y2.391 E10.77707
G1 X4.788 Y2.284 E10.7985
G1 X5.122 Y2.257 E10.8127
G1 X5.442 Y2.248 E10.82627
G1 X5.532 Y2.247 E10.83009
G1 X8.751 Y2.247 E10.96654
G1 X10.707 Y2.275 E11.04947
G1 X13.813 Y2.269 E11.18113
G1 X14.402 Y2.259 E11.20611
G1 X14.656 Y2.265 E11.21688
G1 X15.853 Y2.34 E11.26772
G1 X15.924 Y2.345 E11.27073
G1 X16.704 Y2.411 E11.30392
G1 X19.463 Y2.568 E11.42106
G1 X20.511 Y2.612 E11.46553
G1 X21.013 Y2.673 E11.48696
G1 X21.499 Y2.812 E11.50839
G1 X21.957 Y3.027 E11.52984
G1 X22.375 Y3.31 E11.55124
G1 X22.744 Y3.656 E11.57268
G1 X23.053 Y4.056 E11.59411
G1 X23.296 Y4.5 E11.61556
G1 X23.466 Y4.976 E11.63699
G1 X23.571 Y5.63 E11.66507
G1 X23.589 Y5.951 E11.6787
G1 X23.594 Y6.13 E11.68629
G1 X23.594 Y19.358 E12.24704
G1 X23.584 Y20.085 E12.27786
G1 X23.537 Y20.588 E12.29927
G1 X23.411 Y21.078 E12.32072
G1 X23.21 Y21.542 E12.34215
G1 X22.938 Y21.968 E12.36358
G1 X22.603 Y22.347 E12.38502
G1 X22.212 Y22.667 E12.40644
G1 X21.776 Y22.922 E12.42785
G1 X21.305 Y23.106 E12.44929
G1 X20.929 Y23.194 E12.46566
G1 X19.905 Y23.371 E12.50971
G1 X17.221 Y23.873 E12.62546
G1 X15.337 Y24.273 E12.7071
G1 X14.381 Y24.485 E12.74861
G1 X13.746 Y24.56 E12.77572
G1 X13.138 Y24.571 E12.8015
G1 X13.036 Y24.572 E12.80582
G1 X12.676 Y24.567 E12.82108
G1 X11.965 Y24.477 E12.85146
G1 X11.067 Y24.259 E12.89064
G1 X11.015 Y24.246 E12.89291
G1 X10.156 Y24.022 E12.93054
G1 X7.499 Y23.409 E13.04613
G1 X4.688 Y22.843 E13.16768
G1 X4.583 Y22.822 E13.17222
G1 X4.097 Y22.684 E13.19364
G1 X3.638 Y22.471 E13.21509
G1 X3.219 Y22.189 E13.2365
G1 X2.85 Y21.844 E13.25791
G1 X2.539 Y21.445 E13.27936
G1 X2.295 Y21.002 E13.3008
G1 X2.124 Y20.526 E13.32224
G1 X2.03 Y20.029 E13.34368
G1 X2.012 Y19.771 E13.35464
G1 X2.003 Y19.439 E13.36872
G1 X2.002 Y19.352 E13.37241
G1 X2.002 Y6.095 E13.93439
G1 X2.012 Y5.409 E13.96347
G1 X2.06 Y4.906 E13.98489
G1 X2.186 Y4.416 E14.00634
G1 X2.387 Y3.953 E14.02773
G1 X2.659 Y3.527 E14.04916
G1 X2.995 Y3.149 E14.0706
G1 F4200 E7.5706
G0 F3960 X9.588 Y4.786
G0 X13.53 Y6.402
;TYPE:SUPPORT
G1 F4200 E14.0706
G1 F720 X13.681 Y5.939 E14.09124
G1 X14.077 Y5.651 E14.112
G1 X14.527 Y5.651 E14.13108
G1 X15.098 Y6.438 E14.17229
G1 X14.959 Y6.865 E14.19133
G1 X14.563 Y7.153 E14.21209
G1 X14.077 Y7.153 E14.23269
G1 X13.681 Y6.865 E14.25344
G1 X13.53 Y6.402 E14.27409
G0 F3960 X13.797 Y6.665
G1 F720 X14.842 Y6.665 E14.31839
G0 F3960 X14.663 Y6.867
G1 F720 X14.663 Y6.132 E14.34954
G0 F3960 X14.527 Y7.79
G1 F720 X15.098 Y8.577 E14.39076
G1 X14.959 Y9.004 E14.4098
G1 X14.563 Y9.292 E14.43055
G1 X14.077 Y9.292 E14.45116
G1 X13.681 Y9.004 E14.47191
G1 X13.53 Y8.541 E14.49256
G1 X13.681 Y8.078 E14.5132
G1 X14.077 Y7.79 E14.53396
G1 X14.527 Y7.79 E14.55303
G0 F3960 X14.466 Y7.998
G1 F720 X14.084 Y7.998 E14.56923
G0 F3960 X14.663 Y8.271
G1 F720 X14.663 Y9.006 E14.60039
G0 F3960 X14.527 Y12.964
G1 F720 X15.098 Y13.751 E14.6416
G1 X14.959 Y14.178 E14.66064
G1 X14.563 Y14.466 E14.6814
G1 X14.077 Y14.466 E14.702
G1 X13.681 Y14.178 E14.72275
G1 X13.53 Y13.715 E14.7434
G1 X13.681 Y13.252 E14.76404
G1 X14.077 Y12.964 E14.7848
G1 X14.527 Y12.964 E14.80388
G0 F3960 X14.58 Y13.33
G1 F720 X13.867 Y13.33 E14.8341
G0 F3960 X14.663 Y13.445
G1 F720 X14.663 Y14.18 E14.86526
G0 F3960 X13.732 Y18.33
G1 F720 X14.403 Y18.818 E14.90043
G1 X14.658 Y19.599 E14.93526
G1 X14.274 Y20.688 E14.98421
G1 X13.601 Y21.177 E15.01947
G1 X12.777 Y21.177 E15.0544
G1 X12.106 Y20.689 E15.08957
G1 X11.851 Y19.908 E15.1244
G1 X12.235 Y18.819 E15.17335
G1 X12.908 Y18.33 E15.20861
G1 X13.732 Y18.33 E15.24354
G0 F3960 X13.895 Y18.662
G1 F720 X12.743 Y18.662 E15.29238
G0 F3960 X13.33 Y18.502
G1 F720 X13.33 Y21.005 E15.39848
G0 F3960 X14.335 Y19.995
G1 F720 X12.058 Y19.995 E15.49501
G1 F4200 E8.99501
;MESH:test_right_sensor_mount_screw.stl
G0 F3960 X10.096 Y19.083
G0 X8.817 Y19.083
G0 X6.202 Y18.697
;TYPE:WALL-INNER
G1 F4200 E15.49501
G1 F720 X6.202 Y6.447 E16.01429
G1 X8.431 Y6.447 E16.10878
G1 X8.431 Y18.697 E16.62807
G1 X6.202 Y18.697 E16.72256
G0 F3960 X5.802 Y19.097
G1 F720 X5.802 Y6.047 E17.27576
G1 X8.831 Y6.047 E17.40416
G1 X8.831 Y19.097 E17.95736
G1 X5.802 Y19.097 E18.08577
G0 F3960 X5.402 Y19.497
;TYPE:WALL-OUTER
G1 F720 X5.402 Y5.647 E18.67288
G1 X9.231 Y5.647 E18.83519
G1 X9.231 Y19.497 E19.42231
G1 X5.402 Y19.497 E19.58462
G0 F3960 X5.402 Y19.297
G0 X5.872 Y19.027
G0 X6.592 Y18.307
;TYPE:SKIN
G1 F720 X6.592 Y6.837 E20.07084
G1 X8.041 Y6.837 E20.13227
G1 X8.041 Y18.307 E20.61849
G1 X6.592 Y18.307 E20.67992
G0 F3960 X6.864 Y18.178
G1 F720 X6.719 Y18.033 E20.68861
G0 F3960 X6.719 Y17.467
G1 F720 X7.43 Y18.178 E20.73123
G0 F3960 X7.912 Y18.094
G1 F720 X6.719 Y16.901 E20.80275
G0 F3960 X6.719 Y16.336
G1 F720 X7.912 Y17.529 E20.87427
G0 F3960 X7.912 Y16.963
G1 F720 X6.719 Y15.77 E20.94579
G0 F3960 X6.719 Y15.204
G1 F720 X7.912 Y16.397 E21.01731
G0 F3960 X7.912 Y15.832
G1 F720 X6.719 Y14.639 E21.08883
G0 F3960 X6.719 Y14.073
G1 F720 X7.912 Y15.266 E21.16035
G0 F3960 X7.912 Y14.7
G1 F720 X6.719 Y13.507 E21.23187
G0 F3960 X6.719 Y12.942
G1 F720 X7.912 Y14.135 E21.30339
G0 F3960 X7.912 Y13.569
G1 F720 X6.719 Y12.376 E21.37491
G0 F3960 X6.719 Y11.81
G1 F720 X7.912 Y13.003 E21.44643
G0 F3960 X7.912 Y12.438
G1 F720 X6.719 Y11.245 E21.51795
G0 F3960 X6.719 Y10.679
G1 F720 X7.912 Y11.872 E21.58947
G0 F3960 X7.912 Y11.306
G1 F720 X6.719 Y10.113 E21.66099
G0 F3960 X6.719 Y9.548
G1 F720 X7.912 Y10.74 E21.73248
G0 F3960 X7.912 Y10.175
G1 F720 X6.719 Y8.982 E21.804
G0 F3960 X6.719 Y8.416
G1 F720 X7.912 Y9.609 E21.87552
G0 F3960 X7.912 Y9.043
G1 F720 X6.719 Y7.851 E21.94701
G0 F3960 X6.719 Y7.285
G1 F720 X7.912 Y8.478 E22.01853
G0 F3960 X7.912 Y7.912
G1 F720 X6.965 Y6.965 E22.07531
G0 F3960 X7.53 Y6.965
G1 F720 X7.912 Y7.346 E22.09818
G1 F4200 E15.59818
;MESH:test_left_sensor_mount_screw.stl
G0 F3960 X8.811 Y19.05
G0 X10.096 Y19.05
G0 X15.055 Y19.05
G0 X16.34 Y19.05
G0 X16.72 Y19.05
;TYPE:WALL-INNER
G1 F4200 E22.09818
G1 F720 X16.72 Y6.8 E22.61746
G1 X19.394 Y6.8 E22.73082
G1 X19.394 Y19.05 E23.25011
G1 X16.72 Y19.05 E23.36346
G0 F3960 X16.32 Y19.45
G1 F720 X16.32 Y6.4 E23.91666
G1 X19.794 Y6.4 E24.06392
G1 X19.794 Y19.45 E24.61713
G1 X16.32 Y19.45 E24.76439
G0 F3960 X15.92 Y19.85
;TYPE:WALL-OUTER
G1 F720 X15.92 Y6 E25.3515
G1 X20.194 Y6 E25.53268
G1 X20.194 Y19.85 E26.1198
G1 X15.92 Y19.85 E26.30097
G0 F3960 X15.92 Y19.65
G0 X16.39 Y19.38
G0 X17.11 Y18.66
;TYPE:SKIN
G1 F720 X17.11 Y7.19 E26.7872
G1 X19.004 Y7.19 E26.86749
G1 X19.004 Y18.66 E27.35371
G1 X17.11 Y18.66 E27.434
G0 F3960 X17.399 Y18.531
G1 F720 X17.237 Y18.369 E27.44371
G0 F3960 X17.237 Y17.803
G1 F720 X17.965 Y18.531 E27.48735
G0 F3960 X18.531 Y18.531
G1 F720 X17.237 Y17.237 E27.56493
G0 F3960 X17.237 Y16.672
G1 F720 X18.875 Y18.309 E27.6631
G0 F3960 X18.875 Y17.744
G1 F720 X17.237 Y16.106 E27.76129
G0 F3960 X17.237 Y15.54
G1 F720 X18.875 Y17.178 E27.85949
G0 F3960 X18.875 Y16.612
G1 F720 X17.237 Y14.975 E27.95766
G0 F3960 X17.237 Y14.409
G1 F720 X18.875 Y16.047 E28.05586
G0 F3960 X18.875 Y15.481
G1 F720 X17.237 Y13.843 E28.15405
G0 F3960 X17.237 Y13.278
G1 F720 X18.875 Y14.915 E28.25222
G0 F3960 X18.875 Y14.35
G1 F720 X17.237 Y12.711 E28.35045
G0 F3960 X17.237 Y12.145
G1 F720 X18.875 Y13.784 E28.44868
G0 F3960 X18.875 Y13.218
G1 F720 X17.237 Y11.58 E28.54687
G0 F3960 X17.237 Y11.014
G1 F720 X18.875 Y12.652 E28.64507
G0 F3960 X18.875 Y12.087
G1 F720 X17.237 Y10.448 E28.7433
G0 F3960 X17.237 Y9.883
G1 F720 X18.875 Y11.521 E28.8415
G0 F3960 X18.875 Y10.955
G1 F720 X17.237 Y9.317 E28.93969
G0 F3960 X17.237 Y8.751
G1 F720 X18.875 Y10.39 E29.03792
G0 F3960 X18.875 Y9.824
G1 F720 X17.237 Y8.186 E29.13612
G0 F3960 X17.237 Y7.62
G1 F720 X18.875 Y9.258 E29.23432
G0 F3960 X18.875 Y8.693
G1 F720 X17.5 Y7.317 E29.31678
G0 F3960 X18.065 Y7.317
G1 F720 X18.875 Y8.127 E29.36534
G0 F3960 X18.875 Y7.561
G1 F720 X18.631 Y7.317 E29.37997
G1 F4200 E22.87997
;MESH:NONMESH
G0 F3960 X16.334 Y6.414
G0 X14.093 Y6.351
;TIME_ELAPSED:76.245258
;LAYER:1
M140 S47
M106 S255
G0 F5280 X14.093 Y6.351 Z0.58
;TYPE:SUPPORT
G1 F4200 E29.37997
G1 F870 X14.303 Y5.926 E29.39872
G1 X14.711 Y5.597 E29.41946
G1 X15.098 Y5.519 E29.43508
G1 X15.269 Y5.624 E29.44302
G1 X15.114 Y6.394 E29.47409
G1 X14.729 Y6.705 E29.49367
G1 X14.342 Y6.783 E29.50929
G1 X14.133 Y6.654 E29.51901
G1 X14.093 Y6.351 E29.5311
G0 F5280 X14.663 Y6.28
G1 F870 X14.663 Y6.114 E29.53767
G1 F4200 E23.03767
G0 F5280 X15.098 Y7.658
G1 F4200 E29.53767
G1 F870 X15.206 Y7.725 E29.5427
G1 X15.107 Y8.539 E29.57514
